src/lib/packages/icons/src/assets/line/arrow-left-arrow-right-circle.svg

<svg width="24" height="24" viewBox="0 0 24 24" fill="none" xmlns="http://www.w3.org/2000/svg">
<path d="M8.66699 12.417C8.47499 12.417 8.28296 12.344 8.13696 12.197L6.46997 10.53C6.40097 10.461 6.34708 10.3791 6.30908 10.2881C6.27108 10.1971 6.25098 10.1 6.25098 9.99902C6.25098 9.89802 6.27208 9.80096 6.30908 9.70996C6.34708 9.61896 6.40197 9.53702 6.46997 9.46802L8.13696 7.80103C8.43096 7.50703 8.906 7.50903 9.198 7.80103C9.491 8.09403 9.491 8.56906 9.198 8.86206L8.81201 9.24805H15C15.414 9.24805 15.75 9.58405 15.75 9.99805C15.75 10.412 15.414 10.748 15 10.748H8.81104L9.19702 11.134C9.49002 11.426 9.49002 11.9021 9.19702 12.1951C9.05102 12.3431 8.85899 12.417 8.66699 12.417ZM17.6919 13.707C17.6539 13.616 17.599 13.5341 17.531 13.4661L15.864 11.7991C15.571 11.5061 15.096 11.5061 14.803 11.7991C14.51 12.0921 14.51 12.5671 14.803 12.8601L15.189 13.2461H9C8.586 13.2461 8.25 13.5821 8.25 13.9961C8.25 14.4101 8.586 14.7461 9 14.7461H15.189L14.802 15.1331C14.509 15.4261 14.509 15.9011 14.802 16.1941C14.948 16.3401 15.14 16.4141 15.332 16.4141C15.524 16.4141 15.7161 16.3411 15.8621 16.1941L17.5291 14.5271C17.5981 14.4581 17.6519 14.3759 17.6899 14.2849C17.7279 14.1939 17.748 14.0971 17.748 13.9961C17.75 13.8961 17.7289 13.798 17.6919 13.707ZM22.75 12C22.75 17.928 17.928 22.75 12 22.75C6.072 22.75 1.25 17.928 1.25 12C1.25 6.072 6.072 1.25 12 1.25C17.928 1.25 22.75 6.072 22.75 12ZM21.25 12C21.25 6.899 17.101 2.75 12 2.75C6.899 2.75 2.75 6.899 2.75 12C2.75 17.101 6.899 21.25 12 21.25C17.101 21.25 21.25 17.101 21.25 12Z" fill="currentColor"/>
</svg>

<svg xmlns="http://www.w3.org/2000/svg" width="24" height="24" fill="none"><path fill="currentColor" d="M8.667 12.417a.744.744 0 0 1-.53-.22L6.47 10.53a.748.748 0 0 1-.219-.531.765.765 0 0 1 .219-.531l1.667-1.667a.75.75 0 1 1 1.061 1.061l-.386.386H15a.75.75 0 0 1 0 1.5H8.811l.386.386a.75.75 0 0 1-.53 1.283Zm9.025 1.29a.749.749 0 0 0-.161-.24l-1.667-1.668a.75.75 0 1 0-1.061 1.061l.386.386H9a.75.75 0 0 0 0 1.5h6.189l-.387.387a.75.75 0 0 0 1.06 1.061l1.667-1.667a.749.749 0 0 0 .219-.53.73.73 0 0 0-.056-.29ZM22.75 12c0 5.928-4.822 10.75-10.75 10.75S1.25 17.928 1.25 12 6.072 1.25 12 1.25 22.75 6.072 22.75 12Zm-1.5 0c0-5.101-4.149-9.25-9.25-9.25S2.75 6.899 2.75 12s4.149 9.25 9.25 9.25 9.25-4.149 9.25-9.25Z"/></svg>
